packages/components/src/components/icon/common/ic-assets-synthetics.svg

<svg width="24" height="24" viewBox="0 0 24 24" fill="none" xmlns="http://www.w3.org/2000/svg">
<path d="M18.75 1.5L18.785 1.50073C18.8051 1.50165 18.8251 1.50338 18.8452 1.50592C18.869 1.5091 18.8921 1.51319 18.915 1.51834C18.9346 1.52259 18.9542 1.52784 18.9736 1.53391C18.9917 1.53974 19.0094 1.54601 19.0268 1.55293C19.0475 1.56096 19.0689 1.57059 19.0899 1.58131C19.1135 1.59347 19.1357 1.60627 19.1572 1.62016C19.1677 1.62691 19.1785 1.63429 19.1891 1.64199C19.2941 1.719 19.3766 1.81797 19.431 1.93571L19.3738 1.83325C19.4 1.87253 19.4223 1.91393 19.4405 1.95684L23.931 11.6857C23.9339 11.692 23.9367 11.6983 23.9394 11.7047C23.9511 11.7314 23.9612 11.7593 23.9696 11.788C23.9754 11.8082 23.9804 11.8283 23.9846 11.8486C23.9903 11.8756 23.9944 11.9034 23.9969 11.9317C23.9984 11.9485 23.9993 11.9646 23.9998 11.9806C23.9999 11.9867 24 11.9934 24 12L23.9954 12.083C23.9938 12.0976 23.9917 12.1121 23.9892 12.1266L24 12C24 12.1414 23.9609 12.2736 23.8929 12.3864L23.8887 12.3931L17.8887 22.1431C17.8871 22.1458 17.8854 22.1484 17.8838 22.1511C17.8728 22.1687 17.8611 22.1855 17.8488 22.2019C17.8348 22.2201 17.8203 22.2376 17.8051 22.2543C17.7925 22.2686 17.7781 22.2833 17.7629 22.2974C17.7459 22.3131 17.7285 22.328 17.7104 22.342C17.6953 22.354 17.6797 22.3651 17.6636 22.3757C17.6439 22.3887 17.6236 22.4008 17.6027 22.4119C17.5971 22.4149 17.5913 22.4179 17.5854 22.4208L17.5474 22.4385C17.5251 22.4481 17.5023 22.4567 17.4791 22.4642L17.5854 22.4208C17.5294 22.4488 17.4716 22.4692 17.4131 22.4822C17.3603 22.4938 17.3056 22.5 17.25 22.5L17.359 22.4922C17.3349 22.4958 17.3107 22.4981 17.2866 22.4993L17.25 22.5H5.25C5.22961 22.5 5.20935 22.4992 5.18927 22.4975C5.17758 22.4967 5.16559 22.4955 5.15361 22.4939C5.12452 22.49 5.09614 22.4846 5.06828 22.4777C5.0543 22.4744 5.03977 22.4703 5.02533 22.4658C5.00159 22.4581 4.97884 22.4497 4.95659 22.4402C4.93963 22.4332 4.92177 22.4248 4.90415 22.4156C4.83034 22.377 4.76367 22.327 4.70647 22.2668L4.8 22.35C4.75091 22.3132 4.70761 22.2715 4.67029 22.2261C4.63059 22.1776 4.59627 22.1233 4.56903 22.0643L4.62291 22.1618C4.61377 22.1479 4.60513 22.1337 4.59699 22.1193L4.56903 22.0643L0.0690305 12.3143C0.0656387 12.3069 0.0623731 12.2996 0.0592334 12.2921C0.0503517 12.2717 0.0423699 12.2502 0.03537 12.2283C0.0277221 12.2036 0.0213513 12.1795 0.0162093 12.1552C0.0132545 12.1419 0.0106107 12.1273 0.00839479 12.1126C0.00362808 12.0803 0.000913606 12.0488 0.000192604 12.0172C6.33262e-05 12.0114 0 12.0057 0 12L0.000161698 11.9843C0.000847547 11.9516 0.00367348 11.919 0.00862073 11.8866L0 12C0 11.9469 0.00551052 11.8952 0.0159905 11.8452C0.0214248 11.82 0.0282502 11.7943 0.0364488 11.769C0.0423949 11.75 0.0491974 11.7315 0.0566884 11.7134C0.0770477 11.6647 0.102574 11.6176 0.133356 11.5731L0.0855515 11.6518C0.09494 11.6339 0.105029 11.6165 0.115782 11.5995L0.133356 11.5731L6.88336 1.82309C6.89169 1.81106 6.90033 1.79932 6.90929 1.78787C6.92626 1.76576 6.94584 1.74344 6.96682 1.72225C6.97926 1.70993 6.99243 1.69754 7.00601 1.68566C7.02574 1.66812 7.04758 1.651 7.07053 1.63502C7.08792 1.62301 7.10531 1.61192 7.12311 1.60157C7.13606 1.59402 7.15016 1.5864 7.16459 1.57918L7.19213 1.5661C7.21125 1.55749 7.23074 1.54968 7.25054 1.5427L7.16459 1.57918C7.21868 1.55214 7.27447 1.53224 7.3309 1.51914C7.3853 1.50666 7.44222 1.5 7.5 1.5L7.37595 1.51013C7.41157 1.50414 7.44732 1.5008 7.48294 1.50002L7.5 1.5H18.75ZM10.2405 12.75H1.92L5.403 20.2965L6.9 18.3C7.14853 17.9686 7.61863 17.9015 7.95 18.15C8.24455 18.3709 8.33034 18.7669 8.17122 19.0849L8.1 19.2L6.75 21H16.035L11.9835 12.897L9.60801 16.1891C9.36549 16.5249 8.89668 16.6005 8.56088 16.358C8.2624 16.1424 8.16949 15.7481 8.32285 15.4272L8.39199 15.3109L10.2405 12.75ZM18.606 3.729L13.1745 11.25H15.75C16.1642 11.25 16.5 11.5858 16.5 12C16.5 12.3682 16.2347 12.6744 15.8848 12.7379L15.75 12.75H13.5885L17.3175 20.2065L21.906 12.75H18.75C18.3358 12.75 18 12.4142 18 12C18 11.6318 18.2653 11.3256 18.6152 11.2621L18.75 11.25H22.077L18.606 3.729ZM17.2815 3H8.7135L9.67082 4.91459C9.85606 5.28507 9.70589 5.73558 9.33541 5.92082C9.00609 6.08548 8.61355 5.98512 8.40028 5.70059L8.32918 5.58541L7.3935 3.717L2.1795 11.25H11.16L9.82918 8.58541C9.64394 8.21493 9.79411 7.76442 10.1646 7.57918C10.4939 7.41452 10.8865 7.51488 11.0997 7.79941L11.1708 7.91459L12.219 10.011L17.2815 3Z" fill="#333333"/>
</svg>

<svg width="24" height="24" fill="none" xmlns="http://www.w3.org/2000/svg"><path d="M18.75 1.5h.035a.754.754 0 0 1 .404.142.755.755 0 0 1 .242.294l-.057-.103c.026.04.048.08.067.124l4.49 9.729a.644.644 0 0 1 .039.102A.824.824 0 0 1 24 12l-.005.083a.714.714 0 0 1-.006.044L24 12c0 .141-.04.274-.107.386l-.004.007-6 9.75-.005.008a.725.725 0 0 1-.299.27l-.038.018a.778.778 0 0 1-.068.025l.106-.043a.748.748 0 0 1-.335.079l.109-.008a.739.739 0 0 1-.072.007l-.037.001h-12a.72.72 0 0 1-.293-.06.754.754 0 0 1-.25-.173l.093.083a.75.75 0 0 1-.231-.286l.054.098a.742.742 0 0 1-.026-.043l-.028-.055-4.5-9.75A.724.724 0 0 1 0 12v-.016c0-.032.004-.065.009-.097L0 12a.753.753 0 0 1 .133-.427l-.047.079a.746.746 0 0 1 .03-.052l.017-.027 6.75-9.75a.75.75 0 0 1 .282-.244l.027-.013a.748.748 0 0 1 .059-.023l-.086.036A.752.752 0 0 1 7.5 1.5l-.124.01a.743.743 0 0 1 .107-.01H18.75Zm-8.51 11.25H1.92l3.483 7.547L6.9 18.3a.75.75 0 0 1 1.271.785L8.1 19.2 6.75 21h9.285l-4.052-8.103-2.375 3.292a.75.75 0 0 1-1.285-.762l.069-.116 1.849-2.561Zm8.366-9.021-5.432 7.521h2.576a.75.75 0 0 1 .135 1.488l-.135.012h-2.162l3.73 7.456 4.588-7.456H18.75a.75.75 0 0 1-.135-1.488l.135-.012h3.327l-3.471-7.521ZM17.281 3H8.715l.957 1.915A.75.75 0 0 1 8.4 5.7l-.072-.116-.936-1.868L2.18 11.25h8.98L9.83 8.585A.75.75 0 0 1 11.1 7.8l.07.116 1.049 2.096L17.282 3Z" fill="var(--fill-color1)"/></svg>
